X:1
T:The Lumbering Boys
M:6/8
L:1/8
K:F
 c| B2 G F2 F| F2 F F2 C| F2 F A2 c| f3- A2 c| f2 ff-e d| c3 c2 C|\
 F2 F A2 c| f3- A2 c| f2 f A2 c| f2 f _e2 d| F2 F A2 c| f3- A2 c| f2 f A2 c|\
 f2 f _e2 d|

